resources/svg/icons/community.svg

<svg viewBox="0 0 24 24"><path d="M21 21H3a1 1 0 0 1-1-1v-7.513a1 1 0 0 1 .343-.754L6 8.544V4a1 1 0 0 1 1-1h14a1 1 0 0 1 1 1v16a1 1 0 0 1-1 1zM9 19h3v-6.058L8 9.454l-4 3.488V19h3v-4h2v4zm5 0h6V5H8v2.127c.234 0 .469.082.657.247l5 4.359a1 1 0 0 1 .343.754V19zm2-8h2v2h-2v-2zm0 4h2v2h-2v-2zm0-8h2v2h-2V7zm-4 0h2v2h-2V7z"/></svg>

<svg viewBox="0 0 24 24"><path d="M21,21H3a.9.9,0,0,1-1-1V12.5a1.1,1.1,0,0,1,.3-.8L6,8.5V4A.9.9,0,0,1,7,3H21a.9.9,0,0,1,1,1V20A.9.9,0,0,1,21,21ZM9,19h3V12.9L8,9.5,4,12.9V19H7V15H9Zm5,0h6V5H8V7.1a1.1,1.1,0,0,1,.7.3l5,4.3a1.1,1.1,0,0,1,.3.8Zm2-8h2v2H16Zm0,4h2v2H16Zm0-8h2V9H16ZM12,7h2V9H12Z"/></svg>
